src/containers/site/SiteRobotsScreen/asset/robots_feature_4.svg

<svg width="68" height="77" viewBox="0 0 68 77" fill="none" xmlns="http://www.w3.org/2000/svg">
<path d="M34.5 68C47.4787 68 58 57.4787 58 44.5C58 31.5213 47.4787 21 34.5 21C21.5213 21 11 31.5213 11 44.5C11 57.4787 21.5213 68 34.5 68Z" fill="url(#paint0_linear)"/>
<path d="M2.94926 45C1.87717 45 1 44.2125 1 43.2501C1 42.4189 1.02437 41.5877 1.09746 40.7565C1.9259 30.8038 7.72496 21.9012 16.9596 16.3015C17.8611 15.7546 19.0551 15.9733 19.6642 16.7827C20.2733 17.592 20.0297 18.6638 19.1282 19.2107C10.8925 24.2198 5.72696 32.16 4.97162 41.0408C4.89853 41.7845 4.87416 42.5283 4.87416 43.272C4.89853 44.2125 4.02136 45 2.94926 45Z" fill="url(#paint1_linear)"/>
<path d="M33.0481 77C29.3146 77 25.6467 76.3979 22.1535 75.2145C21.2365 74.9031 20.778 73.9481 21.1055 73.0969C21.433 72.2249 22.4373 71.7889 23.3325 72.1003C26.4546 73.1592 29.7295 73.699 33.0699 73.699C36.0392 73.699 38.9429 73.2837 41.7375 72.4325C42.6545 72.1626 43.637 72.6401 43.9208 73.5121C44.2046 74.3841 43.7025 75.3183 42.7855 75.5882C39.6416 76.5225 36.3666 77 33.0481 77Z" fill="url(#paint2_linear)"/>
<path d="M65.116 41C64.1945 41 63.3676 40.3514 63.2495 39.4567C62.0209 30.7337 56.7758 23.0172 48.8846 18.2978C48.0104 17.761 47.7269 16.665 48.294 15.8375C48.861 15.0099 50.0187 14.7415 50.8929 15.2783C59.7528 20.5568 65.6121 29.2127 66.9824 38.987C67.1242 39.9711 66.3918 40.8658 65.3522 41C65.2813 41 65.1868 41 65.116 41Z" fill="url(#paint3_linear)"/>
<path fill-rule="evenodd" clip-rule="evenodd" d="M21.7931 60.7849C21.8391 60.6989 21.8851 60.6129 21.908 60.5484V60.5269C21.9195 60.4839 21.931 60.4462 21.9425 60.4086C21.954 60.371 21.9655 60.3333 21.977 60.2903V60.2473C22 60.1613 22 60.0753 22 60.0108C22 59.9462 22 59.8387 21.977 59.7742V59.7312L21.977 59.731C21.954 59.645 21.931 59.5591 21.908 59.4946V59.4731C21.8966 59.4301 21.8793 59.3925 21.8621 59.3548C21.8448 59.3172 21.8276 59.2796 21.8161 59.2366V59.2151C21.7701 59.129 21.7241 59.0645 21.6782 59C21.6782 59 21.6782 58.9785 21.6552 58.9785L12.4828 47.6882C12.1379 47.2581 11.5862 47 11.0115 47C10.4368 47 9.88506 47.2581 9.54023 47.6882L0.344828 58.957C0.344828 58.957 0.344828 58.9785 0.321839 58.9785C0.312985 58.9909 0.303278 59.0041 0.293211 59.0179C0.251004 59.0753 0.202469 59.1415 0.183908 59.1935V59.2151C0.137931 59.2796 0.114943 59.3656 0.091954 59.4516V59.4731C0.0804598 59.5161 0.0689655 59.5538 0.0574713 59.5914C0.045977 59.629 0.0344828 59.6667 0.0229885 59.7097V59.7527C0 59.8387 0 59.9247 0 59.9892C0 60.0538 0 60.1613 0.0229885 60.2258V60.2688L0.0229916 60.2688C0.0459791 60.3548 0.0689665 60.4409 0.091954 60.5054V60.5269C0.103448 60.5699 0.12069 60.6075 0.137931 60.6452C0.155172 60.6828 0.172414 60.7204 0.183908 60.7634V60.7849C0.229885 60.871 0.275862 60.9355 0.321839 61C0.321839 61 0.321839 61.0215 0.344828 61.0215L9.51724 72.3118C9.86207 72.7419 10.4138 73 10.9885 73C11.5632 73 12.1149 72.7419 12.4598 72.3118L21.6322 61.0215C21.6322 61.0215 21.6322 61 21.6552 61L21.6552 61C21.7012 60.9355 21.7471 60.871 21.7931 60.7849ZM10.9885 51.5376L16.4598 58.2688H5.51724L10.9885 51.5376ZM5.51724 61.7097L10.9885 68.4409L16.4598 61.7097H5.51724Z" fill="url(#paint4_linear)"/>
<path fill-rule="evenodd" clip-rule="evenodd" d="M50.7593 45H57.6424C63.36 45 68 49.9278 68 56C68 62.0722 63.36 67 57.6424 67H50.7593C49.7917 67 49 66.1592 49 65.1316V46.8684C49 45.8408 49.7917 45 50.7593 45ZM52.5185 63.2633H57.6424C61.4028 63.2633 64.4815 60.017 64.4815 56C64.4815 51.983 61.4028 48.7367 57.6424 48.7367H52.5185V54.1316H58.5C59.4676 54.1316 60.2593 54.9724 60.2593 56C60.2593 57.0276 59.4676 57.8684 58.5 57.8684H52.5185V63.2633Z" fill="url(#paint5_linear)"/>
<path fill-rule="evenodd" clip-rule="evenodd" d="M41 9.02353C41 6.20504 38.8994 3.86723 36.1732 3.38655V1.7479C36.1732 0.786555 35.3687 0 34.3855 0C33.4022 0 32.5978 0.786555 32.5978 1.7479V3.29916H30.9665V1.7479C30.9665 0.786555 30.162 0 29.1788 0C28.1955 0 27.3911 0.786555 27.3911 1.7479V3.29916H22.7877C21.8045 3.29916 21 4.08571 21 5.04706C21 6.0084 21.8045 6.79496 22.7877 6.79496H24.5754V19.205H22.7877C21.8045 19.205 21 19.9916 21 20.9529C21 21.9143 21.8045 22.7008 22.7877 22.7008H27.3687V24.2521C27.3687 25.2134 28.1732 26 29.1564 26C30.1397 26 30.9441 25.2134 30.9441 24.2521V22.7008H32.5754V24.2521C32.5754 25.2134 33.3799 26 34.3631 26C35.3464 26 36.1508 25.2134 36.1508 24.2521V22.6134C38.8994 22.1546 40.9777 19.795 40.9777 16.9765C40.9777 15.4252 40.352 14.0269 39.324 13C40.3743 11.9731 41 10.5748 41 9.02353ZM35.1453 6.81681C36.3966 6.81681 37.4246 7.82185 37.4246 9.04538C37.4246 10.2689 36.3966 11.2739 35.1453 11.2739H28.1508V6.81681H35.1453ZM28.1508 19.205H35.1453C36.3966 19.205 37.4246 18.2218 37.4246 16.9765C37.4246 15.7529 36.3966 14.7479 35.1453 14.7479H28.1508V19.205Z" fill="url(#paint6_linear)"/>
<defs>
<linearGradient id="paint0_linear" x1="11.004" y1="68.0123" x2="58.0143" y2="68.0123" gradientUnits="userSpaceOnUse">
<stop stop-color="#FFB300"/>
<stop offset="1" stop-color="#FF8E37"/>
</linearGradient>
<linearGradient id="paint1_linear" x1="0.989182" y1="45.008" x2="19.9904" y2="45.008" gradientUnits="userSpaceOnUse">
<stop stop-color="#5C8BFC"/>
<stop offset="1" stop-color="#84B0FF"/>
</linearGradient>
<linearGradient id="paint2_linear" x1="20.9937" y1="76.9983" x2="44.0041" y2="76.9983" gradientUnits="userSpaceOnUse">
<stop stop-color="#5C8BFC"/>
<stop offset="1" stop-color="#84B0FF"/>
</linearGradient>
<linearGradient id="paint3_linear" x1="47.9939" y1="41.003" x2="67.003" y2="41.003" gradientUnits="userSpaceOnUse">
<stop stop-color="#5C8BFC"/>
<stop offset="1" stop-color="#84B0FF"/>
</linearGradient>
<linearGradient id="paint4_linear" x1="-0.039977" y1="73.0154" x2="22.0034" y2="73.0154" gradientUnits="userSpaceOnUse">
<stop stop-color="#5C8BFC"/>
<stop offset="1" stop-color="#84B0FF"/>
</linearGradient>
<linearGradient id="paint5_linear" x1="49.0056" y1="66.9991" x2="67.9943" y2="66.9991" gradientUnits="userSpaceOnUse">
<stop stop-color="#5C8BFC"/>
<stop offset="1" stop-color="#84B0FF"/>
</linearGradient>
<linearGradient id="paint6_linear" x1="20.9927" y1="26.0107" x2="40.9933" y2="26.0107" gradientUnits="userSpaceOnUse">
<stop stop-color="#5C8BFC"/>
<stop offset="1" stop-color="#84B0FF"/>
</linearGradient>
</defs>
</svg>

<svg width="68" height="77" fill="none" xmlns="http://www.w3.org/2000/svg"><path d="M34.5 68C47.479 68 58 57.479 58 44.5S47.479 21 34.5 21 11 31.521 11 44.5 21.521 68 34.5 68z" fill="url(#paint0_linear)"/><path d="M2.95 45C1.876 45 1 44.212 1 43.25c0-.831.024-1.662.097-2.493.829-9.953 6.628-18.856 15.863-24.455.901-.547 2.095-.329 2.704.48.61.81.366 1.882-.536 2.429C10.892 24.22 5.727 32.16 4.972 41.04a22.782 22.782 0 00-.098 2.231C4.9 44.212 4.021 45 2.95 45z" fill="url(#paint1_linear)"/><path d="M33.048 77c-3.733 0-7.401-.602-10.895-1.785-.916-.312-1.375-1.267-1.047-2.118.327-.872 1.331-1.308 2.226-.997A30.248 30.248 0 0033.07 73.7c2.97 0 5.873-.415 8.667-1.266.917-.27 1.9.207 2.184 1.08.284.871-.218 1.805-1.136 2.075A34.158 34.158 0 0133.048 77z" fill="url(#paint2_linear)"/><path d="M65.116 41c-.921 0-1.748-.649-1.867-1.543-1.228-8.723-6.473-16.44-14.364-21.16-.875-.536-1.158-1.632-.591-2.46.567-.827 1.725-1.095 2.599-.559 8.86 5.279 14.72 13.935 16.09 23.709.141.984-.591 1.879-1.63 2.013h-.237z" fill="url(#paint3_linear)"/><path fill-rule="evenodd" clip-rule="evenodd" d="M21.793 60.785c.046-.086.092-.172.115-.237v-.021c.011-.043.023-.08.034-.118l.035-.119v-.043a.903.903 0 00.023-.236c0-.065 0-.172-.023-.237v-.043a3.344 3.344 0 00-.069-.236v-.022c-.011-.043-.029-.08-.046-.118a.73.73 0 01-.046-.118v-.022c-.046-.086-.092-.15-.138-.215 0 0 0-.022-.023-.022l-9.172-11.29A1.897 1.897 0 0011.01 47c-.574 0-1.126.258-1.47.688L.344 58.957s0 .021-.023.021l-.029.04a.828.828 0 00-.11.175v.022c-.045.065-.068.15-.091.237v.021l-.035.118a3.346 3.346 0 00-.034.119v.043C0 59.839 0 59.925 0 59.989c0 .065 0 .172.023.237v.043c.023.086.046.172.069.236v.022c.011.043.029.08.046.118.017.038.034.075.046.118v.022c.046.086.092.15.138.215 0 0 0 .022.023.022l9.172 11.29c.345.43.897.688 1.472.688.574 0 1.126-.258 1.47-.688l9.173-11.29s0-.022.023-.022c.046-.065.092-.129.138-.215zM10.99 51.538l5.47 6.73H5.518l5.471-6.73zM5.516 61.71l5.471 6.73 5.472-6.73H5.517z" fill="url(#paint4_linear)"/><path fill-rule="evenodd" clip-rule="evenodd" d="M50.76 45h6.882C63.36 45 68 49.928 68 56s-4.64 11-10.358 11H50.76C49.792 67 49 66.16 49 65.132V46.868c0-1.027.792-1.868 1.76-1.868zm1.759 18.263h5.123c3.76 0 6.84-3.246 6.84-7.263 0-4.017-3.08-7.263-6.84-7.263H52.52v5.395H58.5c.968 0 1.76.84 1.76 1.868s-.792 1.868-1.76 1.868h-5.981v5.395z" fill="url(#paint5_linear)"/><path fill-rule="evenodd" clip-rule="evenodd" d="M41 9.024c0-2.819-2.1-5.157-4.827-5.637v-1.64C36.173.788 35.37 0 34.385 0c-.983 0-1.787.787-1.787 1.748v1.551h-1.631V1.748C30.966.787 30.162 0 29.178 0S27.39.787 27.39 1.748v1.551h-4.603C21.805 3.3 21 4.086 21 5.047s.805 1.748 1.788 1.748h1.787v12.41h-1.787c-.983 0-1.788.787-1.788 1.748s.805 1.748 1.788 1.748h4.58v1.551c0 .961.805 1.748 1.788 1.748.984 0 1.788-.787 1.788-1.748v-1.551h1.631v1.551c0 .961.805 1.748 1.788 1.748s1.788-.787 1.788-1.748v-1.639c2.748-.458 4.827-2.818 4.827-5.636 0-1.552-.626-2.95-1.654-3.977A5.517 5.517 0 0041 9.024zm-5.855-2.207c1.252 0 2.28 1.005 2.28 2.228 0 1.224-1.028 2.229-2.28 2.229h-6.994V6.817h6.994zm-6.994 12.388h6.994c1.252 0 2.28-.983 2.28-2.228 0-1.224-1.028-2.23-2.28-2.23h-6.994v4.458z" fill="url(#paint6_linear)"/><defs><linearGradient id="paint0_linear" x1="11.004" y1="68.012" x2="58.014" y2="68.012" gradientUnits="userSpaceOnUse"><stop stop-color="#FFB300"/><stop offset="1" stop-color="#FF8E37"/></linearGradient><linearGradient id="paint1_linear" x1=".989" y1="45.008" x2="19.99" y2="45.008" gradientUnits="userSpaceOnUse"><stop stop-color="#5C8BFC"/><stop offset="1" stop-color="#84B0FF"/></linearGradient><linearGradient id="paint2_linear" x1="20.994" y1="76.998" x2="44.004" y2="76.998" gradientUnits="userSpaceOnUse"><stop stop-color="#5C8BFC"/><stop offset="1" stop-color="#84B0FF"/></linearGradient><linearGradient id="paint3_linear" x1="47.994" y1="41.003" x2="67.003" y2="41.003" gradientUnits="userSpaceOnUse"><stop stop-color="#5C8BFC"/><stop offset="1" stop-color="#84B0FF"/></linearGradient><linearGradient id="paint4_linear" x1="-.04" y1="73.015" x2="22.003" y2="73.015" gradientUnits="userSpaceOnUse"><stop stop-color="#5C8BFC"/><stop offset="1" stop-color="#84B0FF"/></linearGradient><linearGradient id="paint5_linear" x1="49.006" y1="66.999" x2="67.994" y2="66.999" gradientUnits="userSpaceOnUse"><stop stop-color="#5C8BFC"/><stop offset="1" stop-color="#84B0FF"/></linearGradient><linearGradient id="paint6_linear" x1="20.993" y1="26.011" x2="40.993" y2="26.011" gradientUnits="userSpaceOnUse"><stop stop-color="#5C8BFC"/><stop offset="1" stop-color="#84B0FF"/></linearGradient></defs></svg>
